public/instagram.svg

<svg fill="none" height="32" viewBox="0 0 32 32" width="32" xmlns="http://www.w3.org/2000/svg"><path clip-rule="evenodd" d="m16 3.19995c-3.4763 0-3.9115.01493-5.2768.0768-4.64852.21333-7.23199 2.79253-7.44532 7.44535-.06293 1.3664-.07787 1.8016-.07787 5.2779 0 3.4762.01494 3.9125.0768 5.2778.21334 4.6485 2.79254 7.232 7.44529 7.4454 1.3664.0618 1.8016.0767 5.2779.0767s3.9125-.0149 5.2779-.0767c4.6442-.2134 7.2341-2.7926 7.4442-7.4454.063-1.3653.0779-1.8016.0779-5.2778 0-3.4763-.0149-3.9115-.0768-5.2768-.2091-4.64432-2.7915-7.23205-7.4443-7.44538-1.3664-.06294-1.8026-.07787-5.2789-.07787zm.0001 6.22725c-3.6299 0-6.57284 2.9429-6.57284 6.5728s2.94294 6.5739 6.57284 6.5739c3.6298 0 6.5728-2.943 6.5728-6.5739 0-3.6299-2.943-6.5728-6.5728-6.5728zm-.0001 10.8396c-2.3563 0-4.2667-1.9094-4.2667-4.2667 0-2.3562 1.9104-4.2666 4.2667-4.2666s4.2667 1.9104 4.2667 4.2666c0 2.3573-1.9104 4.2667-4.2667 4.2667zm6.8331-12.63472c-.8491 0-1.5371.688-1.5371 1.536 0 .84802.688 1.53602 1.5371 1.53602.848 0 1.5349-.688 1.5349-1.53602 0-.848-.6869-1.536-1.5349-1.536z" fill="#404b59" fill-rule="evenodd"/></svg>

<svg width="32" height="32" viewBox="0 0 32 32" fill="none" xmlns="http://www.w3.org/2000/svg">
<path fill-rule="evenodd" clip-rule="evenodd" d="M16 3.19995C12.5237 3.19995 12.0885 3.21488 10.7232 3.27675C6.07468 3.49008 3.49121 6.06928 3.27788 10.7221C3.21495 12.0885 3.20001 12.5237 3.20001 16C3.20001 19.4762 3.21495 19.9125 3.27681 21.2778C3.49015 25.9263 6.06935 28.5098 10.7221 28.7232C12.0885 28.785 12.5237 28.7999 16 28.7999C19.4763 28.7999 19.9125 28.785 21.2779 28.7232C25.9221 28.5098 28.512 25.9306 28.7221 21.2778C28.7851 19.9125 28.8 19.4762 28.8 16C28.8 12.5237 28.7851 12.0885 28.7232 10.7232C28.5141 6.07888 25.9317 3.49115 21.2789 3.27782C19.9125 3.21488 19.4763 3.19995 16 3.19995ZM16.0001 9.4272C12.3702 9.4272 9.42726 12.3701 9.42726 16C9.42726 19.6299 12.3702 22.5739 16.0001 22.5739C19.6299 22.5739 22.5729 19.6309 22.5729 16C22.5729 12.3701 19.6299 9.4272 16.0001 9.4272ZM16 20.2668C13.6437 20.2668 11.7333 18.3574 11.7333 16.0001C11.7333 13.6439 13.6437 11.7335 16 11.7335C18.3563 11.7335 20.2667 13.6439 20.2667 16.0001C20.2667 18.3574 18.3563 20.2668 16 20.2668ZM22.8331 7.63208C21.984 7.63208 21.296 8.32008 21.296 9.16808C21.296 10.0161 21.984 10.7041 22.8331 10.7041C23.6811 10.7041 24.368 10.0161 24.368 9.16808C24.368 8.32008 23.6811 7.63208 22.8331 7.63208Z" fill="#404B59"/>
</svg>
